X:1
T:The Town of Ballybay  "Arranged by Terry Tully"
M:C
L:1/8
Q:80
C:Traditional Irish
S:Waltz
K:HP
|: {g}e/2c/2{G}c/2B/2{gcecG}c | \
{g}e/2c/2{G}A/2B/2{gcd}c/2B/2 | \
{g}e/2c/2{G}c/2B/2{gcecG}c |
{gBeBG}BA/2B/2{gcd}c/2A/2 :: \
"flick"a3/2e/2{g}f/2e/2 | \
"flick"a3/2e/2{gcd}c/2e/2 |
"flick"a3/2e/2{g}f/2e/2 | \
{gcecG}cB/2d/2{gcd}c/2A/2 :|
